frontend/assets/classroom.svg

<svg fill="#000000" xmlns="http://www.w3.org/2000/svg" viewBox="0 0 80 80" preserveAspectRatio="none"><path d="M 21 11 C 17.144531 11 14 14.144531 14 18 C 14 21.855469 17.144531 25 21 25 C 24.855469 25 28 21.855469 28 18 C 28 14.144531 24.855469 11 21 11 Z M 29 12 L 30 14 L 67 14 L 67 52 L 68 52 C 68.550781 52 69 52.449219 69 53 L 69 54 L 31 54 L 31 56 L 71 56 L 71 53 C 71 51.695313 70.164063 50.585938 69 50.171875 L 69 12 Z M 21 13 C 23.773438 13 26 15.226563 26 18 C 26 20.773438 23.773438 23 21 23 C 18.226563 23 16 20.773438 16 18 C 16 15.226563 18.226563 13 21 13 Z M 14 27 C 10.699219 27 8 29.699219 8 33 L 8 49.5 C 8 51.421875 9.578125 53 11.5 53 C 12.042969 53 12.539063 52.851563 13 52.625 L 13 56 L 15 56 L 15 49.5 L 13 49.5 C 13 50.339844 12.339844 51 11.5 51 C 10.660156 51 10 50.339844 10 49.5 L 10 33 C 10 30.78125 11.78125 29 14 29 L 17.433594 29 L 21 34.941406 L 24.566406 29 L 45.5 29 C 46.339844 29 47 29.660156 47 30.5 C 47 31.339844 46.339844 32 45.5 32 L 27 32 L 27 56 L 29 56 L 29 34 L 45.5 34 C 47.421875 34 49 32.421875 49 30.5 C 49 28.578125 47.421875 27 45.5 27 L 23.433594 27 L 21 31.058594 L 18.566406 27 Z M 14 34 C 13.449219 34 13 34.449219 13 35 C 13 35.550781 13.449219 36 14 36 C 14.550781 36 15 35.550781 15 35 C 15 34.449219 14.550781 34 14 34 Z M 14 38 C 13.449219 38 13 38.449219 13 39 C 13 39.550781 13.449219 40 14 40 C 14.550781 40 15 39.550781 15 39 C 15 38.449219 14.550781 38 14 38 Z M 14 42 C 13.449219 42 13 42.449219 13 43 C 13 43.550781 13.449219 44 14 44 C 14.550781 44 15 43.550781 15 43 C 15 42.449219 14.550781 42 14 42 Z M 14 46 C 13.449219 46 13 46.449219 13 47 C 13 47.550781 13.449219 48 14 48 C 14.550781 48 15 47.550781 15 47 C 15 46.449219 14.550781 46 14 46 Z M 32 50 C 31.449219 50 31 50.449219 31 51 C 31 51.550781 31.449219 52 32 52 C 32.550781 52 33 51.550781 33 51 C 33 50.449219 32.550781 50 32 50 Z M 36 50 C 35.449219 50 35 50.449219 35 51 C 35 51.550781 35.449219 52 36 52 C 36.550781 52 37 51.550781 37 51 C 37 50.449219 36.550781 50 36 50 Z M 40 50 C 39.449219 50 39 50.449219 39 51 C 39 51.550781 39.449219 52 40 52 C 40.550781 52 41 51.550781 41 51 C 41 50.449219 40.550781 50 40 50 Z M 44 50 C 43.449219 50 43 50.449219 43 51 C 43 51.550781 43.449219 52 44 52 C 44.550781 52 45 51.550781 45 51 C 45 50.449219 44.550781 50 44 50 Z M 48 50 C 47.449219 50 47 50.449219 47 51 C 47 51.550781 47.449219 52 48 52 C 48.550781 52 49 51.550781 49 51 C 49 50.449219 48.550781 50 48 50 Z M 52 50 C 51.449219 50 51 50.449219 51 51 C 51 51.550781 51.449219 52 52 52 C 52.550781 52 53 51.550781 53 51 C 53 50.449219 52.550781 50 52 50 Z M 56 50 C 55.449219 50 55 50.449219 55 51 C 55 51.550781 55.449219 52 56 52 C 56.550781 52 57 51.550781 57 51 C 57 50.449219 56.550781 50 56 50 Z M 60 50 C 59.449219 50 59 50.449219 59 51 C 59 51.550781 59.449219 52 60 52 C 60.550781 52 61 51.550781 61 51 C 61 50.449219 60.550781 50 60 50 Z M 64 50 C 63.449219 50 63 50.449219 63 51 C 63 51.550781 63.449219 52 64 52 C 64.550781 52 65 51.550781 65 51 C 65 50.449219 64.550781 50 64 50 Z M 15 59 C 11.699219 59 9 61.699219 9 65 C 9 68.300781 11.699219 71 15 71 C 17.082031 71 18.921875 69.925781 20 68.304688 C 21.078125 69.925781 22.917969 71 25 71 C 27.082031 71 28.921875 69.925781 30 68.304688 C 31.078125 69.925781 32.917969 71 35 71 C 37.082031 71 38.921875 69.925781 40 68.304688 C 41.078125 69.925781 42.917969 71 45 71 C 47.082031 71 48.921875 69.925781 50 68.304688 C 51.078125 69.925781 52.917969 71 55 71 C 57.082031 71 58.921875 69.925781 60 68.304688 C 61.078125 69.925781 62.917969 71 65 71 C 68.300781 71 71 68.300781 71 65 C 71 61.699219 68.300781 59 65 59 C 62.917969 59 61.078125 60.074219 60 61.695313 C 58.921875 60.074219 57.082031 59 55 59 C 52.917969 59 51.078125 60.074219 50 61.695313 C 48.921875 60.074219 47.082031 59 45 59 C 42.917969 59 41.078125 60.074219 40 61.695313 C 38.921875 60.074219 37.082031 59 35 59 C 32.917969 59 31.078125 60.074219 30 61.695313 C 28.921875 60.074219 27.082031 59 25 59 C 22.917969 59 21.078125 60.074219 20 61.695313 C 18.921875 60.074219 17.082031 59 15 59 Z M 15 61 C 17.222656 61 19 62.777344 19 65 C 19 67.222656 17.222656 69 15 69 C 12.777344 69 11 67.222656 11 65 C 11 62.777344 12.777344 61 15 61 Z M 25 61 C 27.222656 61 29 62.777344 29 65 C 29 67.222656 27.222656 69 25 69 C 22.777344 69 21 67.222656 21 65 C 21 62.777344 22.777344 61 25 61 Z M 35 61 C 37.222656 61 39 62.777344 39 65 C 39 67.222656 37.222656 69 35 69 C 32.777344 69 31 67.222656 31 65 C 31 62.777344 32.777344 61 35 61 Z M 45 61 C 47.222656 61 49 62.777344 49 65 C 49 67.222656 47.222656 69 45 69 C 42.777344 69 41 67.222656 41 65 C 41 62.777344 42.777344 61 45 61 Z M 55 61 C 57.222656 61 59 62.777344 59 65 C 59 67.222656 57.222656 69 55 69 C 52.777344 69 51 67.222656 51 65 C 51 62.777344 52.777344 61 55 61 Z M 65 61 C 67.222656 61 69 62.777344 69 65 C 69 67.222656 67.222656 69 65 69 C 62.777344 69 61 67.222656 61 65 C 61 62.777344 62.777344 61 65 61 Z"/></svg>

<svg xmlns="http://www.w3.org/2000/svg" viewBox="0 0 80 80" preserveAspectRatio="none"><path d="M21 11c-3.855 0-7 3.145-7 7s3.145 7 7 7 7-3.145 7-7-3.145-7-7-7zm8 1l1 2h37v38h1c.55 0 1 .45 1 1v1H31v2h40v-3a3.005 3.005 0 00-2-2.828V12zm-8 1c2.773 0 5 2.227 5 5s-2.227 5-5 5-5-2.227-5-5 2.227-5 5-5zm-7 14c-3.3 0-6 2.7-6 6v16.5c0 1.922 1.578 3.5 3.5 3.5.543 0 1.04-.148 1.5-.375V56h2v-6.5h-2c0 .84-.66 1.5-1.5 1.5s-1.5-.66-1.5-1.5V33c0-2.219 1.781-4 4-4h3.434L21 34.941 24.566 29H45.5c.84 0 1.5.66 1.5 1.5s-.66 1.5-1.5 1.5H27v24h2V34h16.5c1.922 0 3.5-1.578 3.5-3.5S47.422 27 45.5 27H23.434L21 31.059 18.566 27zm0 7c-.55 0-1 .45-1 1s.45 1 1 1 1-.45 1-1-.45-1-1-1zm0 4c-.55 0-1 .45-1 1s.45 1 1 1 1-.45 1-1-.45-1-1-1zm0 4c-.55 0-1 .45-1 1s.45 1 1 1 1-.45 1-1-.45-1-1-1zm0 4c-.55 0-1 .45-1 1s.45 1 1 1 1-.45 1-1-.45-1-1-1zm18 4c-.55 0-1 .45-1 1s.45 1 1 1 1-.45 1-1-.45-1-1-1zm4 0c-.55 0-1 .45-1 1s.45 1 1 1 1-.45 1-1-.45-1-1-1zm4 0c-.55 0-1 .45-1 1s.45 1 1 1 1-.45 1-1-.45-1-1-1zm4 0c-.55 0-1 .45-1 1s.45 1 1 1 1-.45 1-1-.45-1-1-1zm4 0c-.55 0-1 .45-1 1s.45 1 1 1 1-.45 1-1-.45-1-1-1zm4 0c-.55 0-1 .45-1 1s.45 1 1 1 1-.45 1-1-.45-1-1-1zm4 0c-.55 0-1 .45-1 1s.45 1 1 1 1-.45 1-1-.45-1-1-1zm4 0c-.55 0-1 .45-1 1s.45 1 1 1 1-.45 1-1-.45-1-1-1zm4 0c-.55 0-1 .45-1 1s.45 1 1 1 1-.45 1-1-.45-1-1-1zm-49 9c-3.3 0-6 2.7-6 6s2.7 6 6 6a6.006 6.006 0 005-2.695A6.006 6.006 0 0025 71a6.006 6.006 0 005-2.695A6.006 6.006 0 0035 71a6.006 6.006 0 005-2.695A6.006 6.006 0 0045 71a6.006 6.006 0 005-2.695A6.006 6.006 0 0055 71a6.006 6.006 0 005-2.695A6.006 6.006 0 0065 71c3.3 0 6-2.7 6-6s-2.7-6-6-6a6.006 6.006 0 00-5 2.695A6.006 6.006 0 0055 59a6.006 6.006 0 00-5 2.695A6.006 6.006 0 0045 59a6.006 6.006 0 00-5 2.695A6.006 6.006 0 0035 59a6.006 6.006 0 00-5 2.695A6.006 6.006 0 0025 59a6.006 6.006 0 00-5 2.695A6.006 6.006 0 0015 59zm0 2c2.223 0 4 1.777 4 4s-1.777 4-4 4-4-1.777-4-4 1.777-4 4-4zm10 0c2.223 0 4 1.777 4 4s-1.777 4-4 4-4-1.777-4-4 1.777-4 4-4zm10 0c2.223 0 4 1.777 4 4s-1.777 4-4 4-4-1.777-4-4 1.777-4 4-4zm10 0c2.223 0 4 1.777 4 4s-1.777 4-4 4-4-1.777-4-4 1.777-4 4-4zm10 0c2.223 0 4 1.777 4 4s-1.777 4-4 4-4-1.777-4-4 1.777-4 4-4zm10 0c2.223 0 4 1.777 4 4s-1.777 4-4 4-4-1.777-4-4 1.777-4 4-4z"/></svg>
